assets/icons/icon_edit.svg

<svg width="48" height="48" viewBox="0 0 48 48" fill="none" xmlns="http://www.w3.org/2000/svg">
<g clip-path="url(#clip0_2188_3083)">
<path d="M40.3699 10.78L37.2199 7.63004C35.6599 6.07004 33.6098 5.29004 31.5599 5.29004C29.5099 5.29004 27.4699 6.07004 25.8999 7.63004L25.2199 8.31004L22.9499 10.58L6.20985 27.33C5.77985 27.76 5.52985 28.32 5.51985 28.88L5.36985 35.4L5.29985 38.61C5.24985 40.88 7.03985 42.7 9.28985 42.7C9.31985 42.7 9.34985 42.7 9.38985 42.7L12.5999 42.63L19.1199 42.48C19.6799 42.47 20.2399 42.22 20.6699 41.79L39.6898 22.77L40.3699 22.09C43.4898 18.97 43.4898 13.9 40.3699 10.78ZM12.5299 39.63L9.28985 39.7C8.92985 39.7 8.69985 39.54 8.56985 39.41C8.43985 39.28 8.28985 39.04 8.28985 38.68L8.35985 35.47L8.44985 31.53L16.4698 39.55L12.5299 39.64V39.63ZM19.6899 38.52L9.46985 28.3L25.0699 12.7L35.2899 22.92L19.6899 38.52ZM38.2399 19.97L37.5599 20.65L27.3399 10.43L28.0199 9.75004C28.9599 8.81004 30.2199 8.29004 31.5599 8.29004C32.8899 8.29004 34.1499 8.81004 35.0899 9.75004L38.2399 12.9C39.1799 13.84 39.6999 15.1 39.6999 16.44C39.6999 17.78 39.1799 19.03 38.2399 19.98V19.97Z" fill="black"/>
</g>
<defs>
<clipPath id="clip0_2188_3083">
<rect width="48" height="48" fill="white"/>
</clipPath>
</defs>
</svg>

<?xml version="1.0" encoding="UTF-8"?>
<svg xmlns="http://www.w3.org/2000/svg" viewBox="0 0 48 48">
  <defs>
    <style>
      .cls-1 {
        fill: none;
        opacity: .2;
      }
    </style>
  </defs>
  <g id="guid">
    <rect class="cls-1" width="48" height="48"/>
    <rect class="cls-1" x="4" y="4" width="40" height="40"/>
  </g>
  <g id="Layer_2" data-name="Layer 2">
    <path d="M40.37,10.78l-3.15-3.15c-1.56-1.56-3.61-2.34-5.66-2.34-2.05,0-4.09.78-5.66,2.34l-.68.68-2.27,2.27L6.21,27.33c-.43.43-.68.99-.69,1.55l-.15,6.52-.07,3.21c-.05,2.27,1.74,4.09,3.99,4.09.03,0,.06,0,.1,0l3.21-.07,6.52-.15c.56-.01,1.12-.26,1.55-.69l19.02-19.02h0l.68-.68c3.12-3.12,3.12-8.19,0-11.31ZM12.53,39.63l-3.24.07c-.36,0-.59-.16-.72-.29-.13-.13-.28-.37-.28-.73l.07-3.21.09-3.94,8.02,8.02-3.94.09ZM19.69,38.52l-10.22-10.22,15.6-15.6,10.22,10.22-15.6,15.6ZM38.24,19.97l-.68.68-10.22-10.22.68-.68c.94-.94,2.2-1.46,3.54-1.46,1.33,0,2.59.52,3.53,1.46l3.15,3.15c.94.94,1.46,2.2,1.46,3.54s-.52,2.59-1.46,3.54Z"/>
  </g>
</svg>
